recipes/hangoutschat/icon.svg

<svg height="1024" viewBox="0 0 1024 1024" width="1024" xmlns="http://www.w3.org/2000/svg"><path d="m512 0c-235.648438 0-426.667969 191.039062-426.667969 426.730469 0 235.691406 191.019531 426.730469 426.667969 426.730469v170.539062c20.308594 0 426.667969-211.199219 426.667969-597.269531 0-235.691407-191.019531-426.730469-426.667969-426.730469zm0 0" fill="#00897b"/><path d="m931.625 514.347656c-30.503906 184.53125-152.105469 321.917969-256.636719 407.253906l-328.960937-328.960937c-91.734375-91.734375-91.734375-240.214844 0-331.949219 91.734375-91.730468 240.210937-91.730468 331.945312 0zm0 0" fill="#00796b"/><g fill="#fff"><path d="m512 554.667969c-70.59375 0-128-57.410157-128-128 0-70.59375 57.40625-128 128-128 57.769531 0 128 57.40625 128 128 0 70.589843-57.40625 128-128 128zm0-202.667969c-41.664062 0-74.667969 32-74.667969 74.667969 0 42.664062 31.554688 74.664062 74.667969 74.664062 47.0625 0 74.667969-27.605469 74.667969-74.664062 0-47.0625-27.605469-74.667969-74.667969-74.667969zm0 0"/><path d="m512 661.332031c-127.210938 0-234.667969-107.476562-234.667969-234.664062 0-127.191407 107.457031-234.667969 234.667969-234.667969s234.667969 107.476562 234.667969 234.667969c0 80.148437-28.714844 128-76.800781 128-27.09375 0-72.535157-16.621094-72.535157-128v-106.667969h42.667969v106.667969c0 53.4375 11.15625 85.332031 29.867188 85.332031 23.574218 0 34.132812-42.859375 34.132812-85.332031 0-104.066407-87.914062-192-192-192s-192 87.933593-192 192c0 104.0625 87.914062 192 192 192 52.542969 0 87.105469-16.960938 87.445312-17.152344l19.09375 38.164063c-1.792968.894531-44.03125 21.652343-106.539062 21.652343zm0 0"/></g></svg>

<?xml version="1.0" encoding="UTF-8"?>
<svg xmlns="http://www.w3.org/2000/svg" xmlns:xlink="http://www.w3.org/1999/xlink" width="1024" height="1024" viewBox="0 0 1024 1024" version="1.1">
<g id="surface1">
<path style=" stroke:none;fill-rule:nonzero;fill:rgb(0%,53.72549%,48.235294%);fill-opacity:1;" d="M 512 0 C 276.351562 0 85.332031 191.039062 85.332031 426.730469 C 85.332031 662.421875 276.351562 853.460938 512 853.460938 L 512 1024 C 532.308594 1024 938.667969 812.800781 938.667969 426.730469 C 938.667969 191.039062 747.648438 0 512 0 Z M 512 0 "/>
<path style=" stroke:none;fill-rule:nonzero;fill:rgb(0%,47.45098%,41.960784%);fill-opacity:1;" d="M 931.625 514.347656 C 901.121094 698.878906 779.519531 836.265625 674.988281 921.601562 L 346.027344 592.640625 C 254.292969 500.90625 254.292969 352.425781 346.027344 260.691406 C 437.761719 168.960938 586.238281 168.960938 677.972656 260.691406 Z M 931.625 514.347656 "/>
<path style=" stroke:none;fill-rule:nonzero;fill:rgb(100%,100%,100%);fill-opacity:1;" d="M 512 554.667969 C 441.40625 554.667969 384 497.257812 384 426.667969 C 384 356.074219 441.40625 298.667969 512 298.667969 C 569.769531 298.667969 640 356.074219 640 426.667969 C 640 497.257812 582.59375 554.667969 512 554.667969 Z M 512 352 C 470.335938 352 437.332031 384 437.332031 426.667969 C 437.332031 469.332031 468.886719 501.332031 512 501.332031 C 559.0625 501.332031 586.667969 473.726562 586.667969 426.667969 C 586.667969 379.605469 559.0625 352 512 352 Z M 512 352 "/>
<path style=" stroke:none;fill-rule:nonzero;fill:rgb(100%,100%,100%);fill-opacity:1;" d="M 512 661.332031 C 384.789062 661.332031 277.332031 553.855469 277.332031 426.667969 C 277.332031 299.476562 384.789062 192 512 192 C 639.210938 192 746.667969 299.476562 746.667969 426.667969 C 746.667969 506.816406 717.953125 554.667969 669.867188 554.667969 C 642.773438 554.667969 597.332031 538.046875 597.332031 426.667969 L 597.332031 320 L 640 320 L 640 426.667969 C 640 480.105469 651.15625 512 669.867188 512 C 693.441406 512 704 469.140625 704 426.667969 C 704 322.601562 616.085938 234.667969 512 234.667969 C 407.914062 234.667969 320 322.601562 320 426.667969 C 320 530.730469 407.914062 618.667969 512 618.667969 C 564.542969 618.667969 599.105469 601.707031 599.445312 601.515625 L 618.539062 639.679688 C 616.746094 640.574219 574.507812 661.332031 512 661.332031 Z M 512 661.332031 "/>
</g>
</svg>
